X: 959
T: Tater Patch
B: jims roots
M:4/4
L:1/8
Q: 1/4=100
K:D
V:1 
%N:TablEdited by Jim Kendrick
"D"e2ef gfgf | e2ef gfgf | "A"e2a2 abag | e2a2 abag |
"D"e2ef gfgf | e2ef gfgf | "A"efed "E"cA B2 | "A"A3B A4:|
|:"Em"BAGF E4| BAGFE E2e2- |"A"efed "E"cA B2 | "A"A3B A4:|
% abcbook-tune_id 6298c2977aa3706ed8ef0212


% abcbook-boost 0
% abcbook-tablature 
% abcbook-transpose 
% abcbook-lastupdated 1654178455931
% abcbook-soundfonts 
% abcbook-repeats 1


